!!!COM:	Obrecht, Jacob
!!!CDT:	1458-1505/07/
!!!OTL:	Factor orbis / Veni domine
!!!AGN:	Motet
!!!SCT:	Obr2010
!!!SCA:	Obr2010
!!!voices:	5
**kern	**kern	**kern	**kern	**kern
*staff5	*staff4	*staff3	*staff2	*staff1
*Ivox	*Ivox	*Ivox	*Ivox	*Ivox
*I"Bassus	*I"Tenor2	*I"Tenor	*I"Altus	*I"Superius
*I'B	*I'T2	*I'T	*I'A	*I'S
*>[A,B]	*>[A,B]	*>[A,B]	*>[A,B]	*>[A,B]
*>A	*>A	*>A	*>A	*>A
*clefF4	*clefGv2	*clefGv2	*clefGv2	*clefG2
*k[]	*k[]	*k[]	*k[]	*k[]
*M3/1	*M3/1	*M3/1	*M3/1	*M3/1
*met(O)	*met(O)	*met(O)	*met(O)	*met(O)
!!section: Prima pars: Factor orbis/Veni domine
!!!OMD: Prima pars: Factor orbis/Veni domine
=1-	=1-	=1-	=1-	=1-
0.r	0.r	0.r	1A	0.r
.	.	.	1A	.
.	.	.	1G	.
=2	=2	=2	=2	=2
0.r	0.r	0.r	2A/	1a
.	.	.	2A/	.
.	.	.	1A	1a
.	.	.	1B	1g
=3	=3	=3	=3	=3
0.r	0.r	0.r	1c	2a/
.	.	.	.	2a/
.	.	.	1A	1a
.	.	.	1G	1b
=4	=4	=4	=4	=4
0.r	0.r	0.r	2r	1cc
.	.	.	2.A/	.
.	.	.	.	1a
.	.	.	4B\	.
.	.	.	4c\	.
.	.	.	4d\	.
.	.	.	2e\	1g
.	.	.	2E/	.
=5	=5	=5	=5	=5
0.r	0.r	0.r	1G	2r
.	.	.	.	2e/
.	.	.	1E	1g
.	.	.	2r	1e
.	.	.	2G/	.
=6	=6	=6	=6	=6
0.r	0.r	0.r	2E/	2r
.	.	.	2G/	2g/
.	.	.	2r	2e/
.	.	.	2c\	2g/
.	.	.	2A/	2r
.	.	.	2c\	[2a/
=7	=7	=7	=7	=7
0.r	0.r	0.r	2r	2a/]
.	.	.	2e\	1cc
.	.	.	2c\	.
.	.	.	1d	1f
.	.	.	2B\	4e/
.	.	.	.	4d/
=8	=8	=8	=8	=8
0.r	0.r	0.r	1c#i	1e
.	.	.	0d	1d
.	.	.	.	2r
.	.	.	.	2d/
=9	=9	=9	=9	=9
0.r	0.r	0.r	1r	2d/
.	.	.	.	2d/
.	.	.	2r	0a
.	.	.	2A/	.
.	.	.	2A/	.
.	.	.	2A/	.
=10	=10	=10	=10	=10
0.r	0.r	0.r	1e	1g
.	.	.	1d	1f
.	.	.	2c\	2r
.	.	.	2B\	2g/
=11	=11	=11	=11	=11
0.r	0.r	0.r	1A	2g/
.	.	.	.	2f/
.	.	.	1G	1g
.	.	.	2r	1e
.	.	.	2A/	.
=12	=12	=12	=12	=12
0.r	0.r	0.r	2.B-i\	1d
.	.	.	8A/L	.
.	.	.	8G/J	.
.	.	.	2F/	2r
.	.	.	2D/	2.f/
.	.	.	2F/	.
.	.	.	.	4e/
.	.	.	2G/	2d/
=13	=13	=13	=13	=13
0.r	1r	0.r	1A	2c/
.	.	.	.	1f
.	1G	.	1E	.
.	.	.	.	1e
.	1A	.	1F	.
.	.	.	.	2d/
=14	=14	=14	=14	=14
1G	2B\	0.r	1E	1e
.	2c\	.	.	.
2F\	2A/	.	1r	1r
2D\	1d	.	.	.
2E\	.	.	1e	1r
2E\	2c#i\	.	.	.
=15	=15	=15	=15	=15
0D	1d	0.r	1.f	1a
.	2r	.	.	2a/
.	2d\	.	4e\	2a/
.	.	.	4d\	.
1r	2c\	.	2e\	1a
.	2d\	.	[2d\	.
=16	=16	=16	=16	=16
1AA	1e	0.r	2d\]	2r
.	.	.	2c\	2a/
2BB/	2r	.	1d	2f/
2BB/	1d	.	.	2g/
1AA	.	.	1e	2a/
.	2c\	.	.	2a/
=17	=17	=17	=17	=17
2r	1d	0.r	1f	2a/
2D\	.	.	.	2a/
2G\	1d	.	1g	2b-i\
2G\	.	.	.	2b-i/
1D	1d	.	1f	[1a
=18	=18	=18	=18	=18
2r	1A	0.r	2e\	1a]
1D	.	.	1f	.
.	1d	.	.	1r
1G	.	.	1d	.
.	1B	.	.	1r
[2E\	.	.	[2g\	.
=19	=19	=19	=19	=19
2E\]	1c	0.r	2g\]	0.r
1F	.	.	1c	.
.	1A	.	.	.
2D\	.	.	1d	.
1E	1G	.	.	.
.	.	.	2c#i\	.
=20	=20	=20	=20	=20
2D\	1A	0.r	1d	2r
2D\	.	.	.	2a/
2GG/	1G	.	2r	2b-i\
2GG/	.	.	2d\	2b-i\
2D\	1F	.	2d\	1a
2D\	.	.	2d\	.
=21	=21	=21	=21	=21
1GG	1G	0.r	2d\	2r
.	.	.	2g\	2dd\
1r	1A	.	2e\	2dd\
.	.	.	2e\	2cc\
1G	1B	.	1d	2.dd\
.	.	.	.	8cc\L
.	.	.	.	8b\J
=22	=22	=22	=22	=22
2.F\	1.c	0.r	2.f\	4a/
.	.	.	.	4g/
.	.	.	.	2a/
4G\	.	.	4e\	.
2A\	.	.	2c\	2e/
2F\	2A/	.	2f\	1a
1G	1B	.	1d	.
.	.	.	.	2g/
=23	=23	=23	=23	=23
0D	0A	0F	2r	0a
.	.	.	2d\	.
.	.	.	1f	.
[1E	[1c	[1C	[1e	[1g
=24	=24	=24	=24	=24
1E]	1c]	1C]	1e]	1g]
0F	0A	0D	0d	0f
=25	=25	=25	=25	=25
1.C	1G	0.r	1.e	1g
.	1A	.	.	1r
2D\	.	.	2f\	.
2C/	1c	.	2e\	[1g
4BB/	.	.	2c\	.
4AA/	.	.	.	.
=26	=26	=26	=26	=26
0.GG	1B	0.D	1d	2g/]
.	.	.	.	2.b\
.	1G	.	2r	.
.	.	.	.	4cc\
.	.	.	2.B\	1dd
.	1B	.	.	.
.	.	.	4c\	.
.	.	.	2d\	2b\
=27	=27	=27	=27	=27
1r	0c	0A	0e	2a/
.	.	.	.	2.cc\
1r	.	.	.	.
.	.	.	.	4b\
.	.	.	.	2a/
[1GG	[1G	[1B	1d	2g/
.	.	.	.	[2b\
=28	=28	=28	=28	=28
1GG]	1G]	1B]	2r	4b\]
.	.	.	.	4cc\
.	.	.	2d\	2dd\
1AA	1c	0A	2f\	2cc\
.	.	.	2e\	2.a/
1D	1d	.	2.f\	.
.	.	.	.	4g/
.	.	.	.	2f/
.	.	.	4g\	.
=29	=29	=29	=29	=29
2AA/	1.c	0.r	2.a\	1e
2.A\	.	.	.	.
.	.	.	4g\	.
.	.	.	2e\	2r
4G\	.	.	.	.
2F\	2A/	.	2d\	1a
1E	1B	.	[1e	.
.	.	.	.	2g#i/
=30	=30	=30	=30	=30
1AA	1A	1r	0.e]	1.a
2r	1c	1A	.	.
2AA/	.	.	.	2.cc\
1C	2c\	1G	.	.
.	.	.	.	4b\
.	2c\	.	.	2g/
=31	=31	=31	=31	=31
1AA	1c	1F	1f	1a
0GG	0B	0G	2e\	2r
.	.	.	2d\	1b
.	.	.	1g	.
.	.	.	.	2dd\
=32	=32	=32	=32	=32
1r	0c	0A	1e	2cc\
.	.	.	.	2.a/
1r	.	.	1f	.
.	.	.	.	4b\
.	.	.	.	4cc\
.	.	.	.	4dd\
[1GG	[1d	[1G	1g	1b
=33	=33	=33	=33	=33
0.GG]	1d]	1G]	2r	2g/
.	.	.	2.G/	2.b\
.	0d	0B	.	.
.	.	.	4A/	4cc\
.	.	.	2B\	1dd
.	.	.	1G	.
.	.	.	.	2b\
=34	=34	=34	=34	=34
1AA	0.c	0A	1E	2cc\
.	.	.	.	1a
2FF/	.	.	2F/	.
2.AA/	.	.	2E/	2.cc\
.	.	1A	1e	.
4BB/	.	.	.	4b\
2C/	.	.	.	4a/
.	.	.	.	4g/
=35	=35	=35	=35	=35
1D	1r	1A	1.d	1f
2GG/	1r	0G	.	1g
1C	.	.	2e\	.
.	2r	.	1c	2r
2E\	2G/	.	.	2g/
=36	=36	=36	=36	=36
2.D\	1A	0.r	1d	2f/
.	.	.	.	2.a/
8C/L	.	.	.	.
8BB/J	.	.	.	.
1AA	1c	.	1r	.
.	.	.	.	4g/
.	.	.	.	4f/
.	.	.	.	4e/
2r	1B	.	2d\	2d/
2GG/	.	.	2c\	2g/
=37	=37	=37	=37	=37
2AA/	2r	0.r	1f	2f/
2FF/	2A/	.	.	2.a/
2GG/	1B	.	0d	.
.	.	.	.	4g/
2GG/	.	.	.	1g
2D\	1A	.	.	.
2D\	.	.	.	2f#i/
=38	=38	=38	=38	=38
0GG	1G	0.r	2.d\	2.g/
.	.	.	4c\	4f/
.	2r	.	4B\	4e/
.	.	.	4A/	4d/
.	1B	.	1d	1g
1r	.	.	.	.
.	2A/	.	2c\	2f/
=39	=39	=39	=39	=39
2r	2G/	0.r	2B\	2e/
2D\	2.A/	.	2.d\	2.f/
2D\	.	.	.	.
.	4F/	.	4c\	4e/
2GG/	2G/	.	2B\	1d
1AA	1E	.	[1A	.
.	.	.	.	2c#i/
=40	=40	=40	=40	=40
2r	1D	0F	1A]	1d
1D	.	.	.	.
.	1A	.	1r	2r
2F\	.	.	.	2d/
1E	1B	1G	1r	[1e
=41	=41	=41	=41	=41
2C/	1.c	1.A	1r	2e/]
1F	.	.	.	1f
.	.	.	1r	.
2G\	2B\	2G/	.	1d
1D	1A	1F	[1d	.
.	.	.	.	2a/
=42	=42	=42	=42	=42
1GG	1G	1G	2d\]	2b\
.	.	.	2c\	1g
1r	1r	1D	1A	.
.	.	.	.	2f/
[1C	2r	1G	[1e	[1g
.	[2G/	.	.	.
=43	=43	=43	=43	=43
1C]	2G/]	1r	1e]	1g]
.	2c\	.	.	.
2BB/	2d\	1G	2d\	1r
2C/	1e	.	2c\	.
1D	.	1F	[1A	1r
.	[2d\	.	.	.
=44	=44	=44	=44	=44
1AA	2d\]	1E	1A]	0.r
.	2c\	.	.	.
2BB/	1d	1D	1r	.
1GG	.	.	.	.
.	2B\	[1E	1r	.
2AA/	[2c\	.	.	.
=45	=45	=45	=45	=45
2C/	4c\]	2E/]	0.r	0.r
.	4B\	.	.	.
2D\	2A/	2F/	.	.
1E	2G/	1G	.	.
.	1c	.	.	.
2C/	.	2E/	.	.
[2D\	[2B-\	[2F/	.	.
=46	=46	=46	=46	=46
4D\]	2B-\]	2F/]	1r	1r
4C/	.	.	.	.
2AA/	1A	1E	.	.
1BB-i	.	.	1r	1d
.	2G/	2D/	.	.
1AA	1A	2E/	2r	2c/
.	.	[2F/	2A/	2c/
=47	=47	=47	=47	=47
1BB-	0.r	2F/]	2F/	2.d/
.	.	2D/	2G/	.
.	.	.	.	8c/L
.	.	.	.	8B/J
2AA/	.	2E/	2A/	2c/
2BB-/	.	2D/	2G/	1d
1AA	.	1E	[1A	.
.	.	.	.	2c#i/
=48	=48	=48	=48	=48
2r	0.r	0D	1A]	0.d
2.D\	.	.	.	.
.	.	.	2r	.
4E\	.	.	.	.
2F\	.	.	2A/	.
2D\	.	1r	2A/	.
2G\	.	.	2B\	.
=49	=49	=49	=49	=49
2D\	0.r	0.r	2A/	0.r
2F\	.	.	1d	.
1E	.	.	.	.
.	.	.	2c#i\	.
2r	.	.	1d	.
[2D\	.	.	.	.
=50	=50	=50	=50	=50
2D\]	0.r	0.r	2r	0.r
2.F\	.	.	2d\	.
.	.	.	2d\	.
4E\	.	.	.	.
4D\	.	.	1f	.
4C/	.	.	.	.
4BB/	.	.	.	.
4AA/	.	.	.	.
2C/	.	.	[2e\	.
=51	=51	=51	=51	=51
2AA/	0.r	0.r	4e\]	0.r
.	.	.	4d\	.
1A	.	.	2c\	.
.	.	.	1B	.
2G\	.	.	.	.
2.F\	.	.	1A	.
4E\	.	.	.	.
=52	=52	=52	=52	=52
4C/	0.r	1r	2r	0.r
2D\	.	.	.	.
.	.	.	2A/	.
4C/	.	.	.	.
1AA	.	1.A	2.c\	.
.	.	.	4d\	.
2r	.	.	2e\	.
[2A\	.	2F/	2f\	.
=53	=53	=53	=53	=53
2A\]	0.r	2c\	2e\	0.r
2D\	.	2d\	1f	.
2E\	.	4B\	.	.
.	.	2c\	.	.
2G\	.	.	1e	.
.	.	2B\	.	.
1F	.	.	.	.
.	.	8A/L	.	.
.	.	8G/J	.	.
.	.	2A/	2d\	.
=54	=54	=54	=54	=54
1E	0.r	1B	1e	1r
1r	.	1r	1r	1r
1E	.	1B	1e	1g
=55	=55	=55	=55	=55
1E	0.r	1B	1e	1g
1E	.	1B	1e	1g
[1E	.	[1B	[1e	[1g
=56	=56	=56	=56	=56
2E\]	0.r	2B\]	2e\]	2g/]
2E\	.	2B\	2e\	2g/
1E	.	1B	1e	1g
1F	.	1A	1c	1a
=57	=57	=57	=57	=57
1F	0.r	1A	1d	1a
1E	.	1B	1e	1g
2r	.	2r	2r	2r
2E\	.	2B\	2e\	2g/
=58	=58	=58	=58	=58
1E	0.r	1B	1e	1g
1E	.	1B	1e	1g
1F	.	1A	1c	2f/
.	.	.	.	[2a/
=59	=59	=59	=59	=59
1F	0.r	1A	1d	2a/]
.	.	.	.	4g/
.	.	.	.	4f/
0E	.	0B	0e	2g/
.	.	.	.	1a
.	.	.	.	2g#i/
=60	=60	=60	=60	=60
1AA	0.r	1A	1e	1a
2r	.	2r	2r	1r
2AA/	.	2A/	2e\	.
2AA/	.	2A/	2e\	1r
2AA/	.	2A/	2e\	.
=61	=61	=61	=61	=61
2C/	0.r	2G/	2e\	0.r
2C/	.	2G/	2e\	.
1D	.	1F	1f	.
1BB	.	1G	1d	.
=62	=62	=62	=62	=62
1AA	0.r	1A	1c	1r
2r	.	2r	2r	2r
2D\	.	2F/	2A/	2d/
1D	.	1F	1B	1d
=63	=63	=63	=63	=63
1D	0.r	1F	1B	1d
1AA	.	1E	1A	1c
1BB	.	1D	1F	2d/
.	.	.	.	[2d/
=64	=64	=64	=64	=64
1AA	0.r	1E	1A	2d/]
.	.	.	.	4c#i/
.	.	.	.	4B/
1AA	.	1E	1A	1c#i
1D	.	1D	1A	1d
=65	=65	=65	=65	=65
2r	0.r	2r	2r	2r
2D\	.	2D/	2A/	2d/
1C	.	1E	1c	1g
1D	.	1F	1A	1f
=66	=66	=66	=66	=66
1GG	0.r	1G	1B	2e/
.	.	.	.	1d
1AA	.	1E	1A	.
.	.	.	.	2c#i/
1DD	.	1D	1A	1d
=67	=67	=67	=67	=67
2r	0.r	2r	2r	2r
2D\	.	2F/	2A/	2d/
1D	.	1A	1d	1f
1D	.	1F	1A	1f
=68	=68	=68	=68	=68
1C	0.r	1.G	1.c	0e
1C	.	.	.	.
.	.	2E/	2A/	.
1D	.	1F	[1A	1d
=69	=69	=69	=69	=69
1AA	0.r	1E	1A]	1e
2r	.	2r	2r	2r
2AA/	.	2A/	2c\	2e/
2AA/	.	2A/	2c\	2e/
2AA/	.	2A/	2c\	2e/
=70	=70	=70	=70	=70
1C	0.r	1G	1c	1e
2r	.	2r	2r	2r
2D\	.	2F/	2A/	2d/
2C/	.	2G/	1c	2e/
2AA/	.	[2A/	.	[2f/
=71	=71	=71	=71	=71
1D	0.r	2A/]	1A	4f/]
.	.	.	.	4e/
.	.	2F/	.	1d
1AA	.	1E	1A	.
.	.	.	.	2c#i/
1BB-i	.	1D	1F	[1d
=72	=72	=72	=72	=72
1.BB-i	0.r	2r	2.F/	1d]
.	.	1F	.	.
.	.	.	4E/	.
.	.	.	2D/	1r
2AA/	.	1A	2C/	.
1BB-i	.	.	1D	1d
.	.	2G/	.	.
=73	=73	=73	=73	=73
1AA	0.r	2A/	2r	1c
.	.	1F	2A/	.
1BB-i	.	.	2F/	2d/
.	.	2D/	2G/	1d
1AA	.	2E/	1A	.
.	.	2E/	.	2c#i/
=74	=74	=74	=74	=74
*	*	*	*M2/1	*
*	*	*	*met(C|)	*
0D	[0Fj	1D	1A	2d/
.	.	.	.	2.f/
.	.	2r	2r	.
.	.	.	.	4g/
.	.	2D/	2A/	2a/
=-	=-	=-	=	=-
1r	1F]	2.A/	2c\	1f
.	.	.	2c\	.
.	.	8B\L	.	.
.	.	8c\J	.	.
=75	=75	=75	=75-	=75
2D\	1F	2d\	2A/	2r
4BB-i/	.	4d\	2B-\	[2f/j
[4D\j	.	[4d\j	.	.
=-	=-	=-	=	=-
4D\]	1r	4d\]	2A/	4f/]
4F\	.	8c\L	.	4d/
.	.	8B\J	.	.
2E\	.	2c\	2G/	2e/
1D	1F	1d	2A/	2f/
.	.	.	2A/	[2a/
=76	=76	=76	=76	=76
1AA	1E	2.c\	2A/	4a/]
.	.	.	.	4b\
.	.	.	4A/	2cc\
.	.	4B\	4A/	.
1AA	1C	2A/	2c\	4r
.	.	.	.	4.cc\
.	.	2F/	2A/	.
.	.	.	.	8b\
.	.	.	.	4a/
=-	=-	=-	=	=-
2GG/	1D	2G/	2B\	4d/
.	.	.	.	2g/
2D\	.	4.A/	2A/	.
.	.	.	.	4f/
.	.	8B\	.	.
=77	=77	=77	=77-	=77
2r	[1Ej	4c\	2G/	2g/
.	.	4B\	.	.
[2AA/j	.	2c\	4r	2e/
.	.	.	4A/	.
=-	=-	=-	=	=-
4AA/]	2E]	2C/	4E/	2c/
4C/	.	.	2A/	.
2BB/	2D/	2r	.	2d/
.	.	.	4G/	.
1AA	[1E	1C	2A/	2c/
.	.	.	4r	[2cc\
.	.	.	4A/	.
=78	=78	=78	=78	=78
2AA/	1E]	2C/	2c\	2cc\]
2.AA/	.	2c\	2A/	1cc
.	[1Aj	4A/	4.c\	.
4BB/	.	2c\	.	.
.	.	.	8d\	.
4C/	.	.	4e\	2a/
[4D\j	.	[4A/j	[4f\	.
=-	=-	=-	=	=-
4D\]	1A]	4A]/	4f\]	2.a/
4C/	.	4E/	2e\	.
2D\	.	2F/	.	.
.	.	.	4d\	4b\
=79	=79	=79	=79-	=79
1AA	[1Aj	1E	2e\	4cc\
.	.	.	.	4.cc\
.	.	.	2e\	.
.	.	.	.	8b/L
.	.	.	.	8a/
.	.	.	.	8g/J
=-	=-	=-	=	=-
2D\	1A]	2F/	2d\	4f/
.	.	.	.	4.a/
1AA	.	2E/	2c\	.
.	.	.	.	8b\
.	.	.	.	2cc\
.	1r	2F/	2c\	.
.	.	.	.	2a/
2E\	.	2G/	2B\	.
.	.	.	.	4g/
=80	=80	=80	=80	=80
2F\	0F	2D/	2A/	1a
2.A\	.	1r	2c\	.
.	.	.	2c\	2f/
4G\	.	.	.	.
2F\	.	2d\	2A/	2f/
=-	=-	=-	=	=
1E	1C	[1e	2G/	1g
.	.	.	2G/	.
=81	=81	=81	=81-	=81
1AA	2.C/	1e]	2c\	2a/
.	.	.	2c\	[2cc\j
.	4D/	.	.	.
=-	=-	=-	=	=-
1r	1E	1e	2c\	4cc\]
.	.	.	.	4b\
.	.	.	2B\	2g/
1r	2F/	2c\	2A/	2a/
.	2G/	4B\	2B\	[2g/
.	.	[4e\	.	.
=82	=82	=82	=82	=82
0rjj	4E/	4e\]	2c\	4g/]
.	2F/	2c\	.	2a/
.	.	.	2A/	.
.	2D/	2d\	.	2f/
.	.	.	2A/	.
.	4F/	8c\L	.	4d/
.	.	8B\J	.	.
.	2E/	2c\	2G/	4e/
.	.	.	.	4g/
=-	=-	=-	=	=-
1rj	2D/	2d\	2A/	2.f/
.	[2A/	2c\	2c\	.
.	.	.	.	[4a/
=83	=83	=83	=83-	=83
1r	4A/]	1A	2c\	4a/]
.	4B\	.	.	2g/
.	2c\	.	2A/	.
.	.	.	.	4f#i/
=-	=-	=-	=	=-
1GG	2.d\	1B	2G/	1g
.	.	.	2G/	.
.	4c\	.	.	.
2.AA/	1A	2E/	2c\	1r
.	.	2F/	2c\	.
4BB/	.	.	.	.
=84	=84	=84	=84	=84
4C/	0rjj	4E/	2c\	1e
4D\	.	2A/	.	.
2E\	.	.	2B\	.
.	.	4G/	.	.
2AA/	.	2A/	2A/	2.e/
2C/	.	2E/	4G/	.
.	.	.	[4A/	8d/L
.	.	.	.	8e/J
=-	=-	=-	=	=-
2D\	1rj	2r	4A/]	4f/
.	.	.	8G/L	2d/
.	.	.	8F/J	.
2E\	.	4.G/	2E/	.
.	.	.	.	4c/
.	.	8A/	.	.
=85	=85	=85	=85-	=85
2F\	1r	8B/L	2D/	2d/
.	.	8A/J	.	.
.	.	2d\	.	.
2E\	.	.	2G/	2e/
.	.	4c\	.	.
=-	=-	=-	=	=-
2D\	1A	2d\	2A/	2f/
2AA/	.	2c\	2c\	2e/
[1E	[1G	1e	2B\	4r
.	.	.	.	4e/
.	.	.	2G/	4c/
.	.	.	.	[4e/
=86	=86	=86	=86	=86
2E\]	2G/]	1E	2B\	8e/L]
.	.	.	.	8f/J
.	.	.	.	4.g/
2C/	2E/	.	2c\	.
.	.	.	.	8f/
.	.	.	.	4e/
1D	1F	1r	[1Al	4d/
.	.	.	.	4.f/
.	.	.	.	8e/
.	.	.	.	[4d/j
=-	=-	=-	=	=-
1AA	1E	2r	1A_	4d/]
.	.	.	.	8c#i/L
.	.	.	.	8B/J
.	.	2C/	.	2c#i/
=87	=87	=87	=87	=87
0.Dl	0.Dl	2.F/	0.A]	0.dl
.	.	8E/L	.	.
.	.	8D/J	.	.
.	.	0Dl	.	.
!!LO:LB:i:g=z
=88||	=88||	=88||	=88||	=88||
*>B	*>B	*>B	*>B	*>B
*clefF4	*clefGv2	*clefGv2	*clefGv2	*clefG2
*k[]	*k[]	*k[]	*k[]	*k[]
*M2/1	*M2/1	*M2/1	*M2/1	*M2/1
*met(C|)	*met(C|)	*met(C|)	*met(C|)	*met(C|)
!!section: Secunda pars: Spiritus domini/Hodie scietis
!!!OMD: Secunda pars: Spiritus domini/Hodie scietis
[0AA	[0C	0c	[0e	[0a
=89	=89	=89	=89	=89
0AA]	0C]	0c	0e]	1a]
.	.	.	.	1a
=90	=90	=90	=90	=90
[0BB-	0D	1.B-	[0d	0f
.	.	4A/	.	.
.	.	4G/	.	.
=91	=91	=91	=91	=91
0BB-]	0D	2F/	0d]	1f
.	.	2D/	.	.
.	.	1d	.	1f
=92	=92	=92	=92	=92
[0AA	[0A	1c	0e	0cc
.	.	1A	.	.
=93	=93	=93	=93	=93
1AA]	0A]	1c	1e	1r
1FF	.	1d	1f	[1a
=94	=94	=94	=94	=94
1GG	0B	1G	0d	1a]
1GG	.	1G	.	1g
=95	=95	=95	=95	=95
0D	0A	1.F	1.d	0a
.	.	[2D/	[2f\	.
=96	=96	=96	=96	=96
1D	1A	2D/]	4f\]	0r
.	.	.	4e\	.
.	.	2F/	1d	.
1E	1G	1E	.	.
.	.	.	2c\	.
=97	=97	=97	=97	=97
2F\	1A	2D/	1.d	0r
1D	.	1F	.	.
.	2F/	.	.	.
2C/	[2A/	2E/	2e\	.
=98	=98	=98	=98	=98
1D	2A/]	1F	2A/	0r
.	4G/	.	2.B\	.
.	4F/	.	.	.
1BB	1G	1D	.	.
.	.	.	4c\	.
.	.	.	[2d\	.
=99	=99	=99	=99	=99
0AA	[0A	0E	2d\]	[0a
.	.	.	4c#i\	.
.	.	.	4B\	.
.	.	.	1c#i	.
=100	=100	=100	=100	=100
[0F	0A_	[0D	[0d	0a_
=101	=101	=101	=101	=101
0F]	0A]	0D_	0d]	0a]
=102	=102	=102	=102	=102
[0BB-	0F	0D]	[0d	[0b-
=103	=103	=103	=103	=103
0BB-]	0G	1D	0d]	0b-]
.	.	1D	.	.
=104	=104	=104	=104	=104
1AA	0A	2E/	1c	0cc
.	.	2F/	.	.
1AA	.	2E/	1e	.
.	.	[2A/	.	.
=105	=105	=105	=105	=105
1E	0r	2A/]	1e	1b
.	.	2G/	.	.
2.F\	.	2.A/	2c\	[1a
.	.	.	2f\	.
4G\	.	4B\	.	.
=106	=106	=106	=106	=106
2A\	0r	2c\	2e\	1a]
2D\	.	2d\	2f\	.
1E	.	1B	1e	1g#i
=107	=107	=107	=107	=107
0AA	1.c	2A/	1.e	0a
.	.	4G/	.	.
.	.	4F/	.	.
.	.	2E/	.	.
.	2A/	[2F/	[2c\	.
=108	=108	=108	=108	=108
1FF	1A	4F/]	2c\]	1cc
.	.	4G/	.	.
.	.	2A/	2A/	.
1GG	1G	2D/	1B	1b
.	.	[2E/	.	.
=109	=109	=109	=109	=109
0AA	1E	4E/]	0A	0cc
.	.	4D/	.	.
.	.	4C/	.	.
.	.	4BB/	.	.
.	1F	1C	.	.
=110	=110	=110	=110	=110
0GG	0G	[0D	1r	1b
.	.	.	[1d	1g
=111	=111	=111	=111	=111
0r	0F	0D]	2d\]	0a
.	.	.	4c\	.
.	.	.	4B\	.
.	.	.	1A	.
=112	=112	=112	=112	=112
1C	[0E	0r	1e	1g
2GG/	.	.	2B\	4g/
.	.	.	.	4f/
[2C/	.	.	[2e\	4e/
.	.	.	.	4d/
=113	=113	=113	=113	=113
4C/]	0E_	0r	4e\]	4c/
4BB/	.	.	4d\	4d/
1AA	.	.	2c\	4e/
.	.	.	.	4f/
.	.	.	1B	4e/
.	.	.	.	4d/
2GG/	.	.	.	[2e/
=114	=114	=114	=114	=114
0AA	0E]	0C	[0A	4e/]
.	.	.	.	4d/
.	.	.	.	4c#i/
.	.	.	.	4B/
.	.	.	.	1c#i
=115	=115	=115	=115	=115
0r	[0D	[0F	0A]	0d
=116	=116	=116	=116	=116
0r	0D]	0F]	1.f	1r
.	.	.	.	[1a
.	.	.	2f\	.
=117	=117	=117	=117	=117
0r	0r	0D	1f	2a/]
.	.	.	.	2a/
.	.	.	1f	1a
=118	=118	=118	=118	=118
0r	0r	0r	1e	1g
.	.	.	2c\	1a
.	.	.	2d\	.
=119	=119	=119	=119	=119
0r	0r	0r	2A/	1r
.	.	.	1d	.
.	.	.	.	1a
.	.	.	2c\	.
=120	=120	=120	=120	=120
0r	0r	0r	2.d\	1f
.	.	.	4c\	.
.	.	.	4B\	1f
.	.	.	4A/	.
.	.	.	[2d\	.
=121	=121	=121	=121	=121
0r	0r	0r	2d\]	1e
.	.	.	4c#i\	.
.	.	.	4B\	.
.	.	.	1c#i	1e
=122	=122	=122	=122	=122
0r	0r	0r	1d	0d
.	.	.	1r	.
=123	=123	=123	=123	=123
0r	0r	0r	1D	1r
.	.	.	1G	1d
=124	=124	=124	=124	=124
0r	0r	0r	2E/	1g
.	.	.	1e	.
.	.	.	.	2e/
.	.	.	[2d\	[2f/
=125	=125	=125	=125	=125
0r	0r	0r	2d\]	4f/]
.	.	.	.	4g/
.	.	.	2c\	2a/
.	.	.	[1d	2f/
.	.	.	.	[2b-\
=126	=126	=126	=126	=126
0r	0r	0r	2d\]	2b-\]
.	.	.	2c\	1a
.	.	.	2d\	.
.	.	.	2e\	2g/
=127	=127	=127	=127	=127
0r	0r	0r	1.f	2a/
.	.	.	.	1d
.	.	.	[2d\	2f/
=128	=128	=128	=128	=128
1AA	1A	0r	2d\]	1e
.	.	.	4c#i\	.
.	.	.	4B\	.
1AA	1A	.	1c#i	1e
=129	=129	=129	=129	=129
1D	1A	1F	0d	0d
1D	1A	1F	.	.
=130	=130	=130	=130	=130
1F	1A	1D	0r	0r
1F	1A	1D	.	.
=131	=131	=131	=131	=131
1E	1B	1G	0r	0r
1E	1c	1G	.	.
=132	=132	=132	=132	=132
1D	0d	1A	0r	0r
2GG/	.	2G/	.	.
[2D\	.	[2B-\	.	.
=133	=133	=133	=133	=133
2D\]	1r	2B-\]	0r	0r
2C/	.	1A	.	.
1BB	1d	.	.	.
.	.	2G/	.	.
=134	=134	=134	=134	=134
2AA/	1c	1A	0r	0r
2C/	.	.	.	.
2D\	1A	2F/	.	.
[2F\	.	[2A/	.	.
=135	=135	=135	=135	=135
2F\]	1.c	2A/]	0r	0r
2E\	.	2G/	.	.
1F	.	1A	.	.
.	4B-i\	.	.	.
.	4A/	.	.	.
=136	=136	=136	=136	=136
2r	1B-	2r	0r	0r
1D	.	1F	.	.
.	[1A	.	.	.
2C/	.	2E/	.	.
=137	=137	=137	=137	=137
2D\	1A]	2F/	0r	0r
2AA/	.	1E	.	.
1BB	1G	.	.	.
.	.	2D/	.	.
=138	=138	=138	=138	=138
2.AA/	0A	1E	0r	0r
4BB/	.	.	.	.
2C/	.	2r	.	.
[2D\	.	[2F/	.	.
=139	=139	=139	=139	=139
2D\]	1r	2F/]	0r	0r
2C/	.	2E/	.	.
2D\	1A	2F/	.	.
[2F\	.	[2D/	.	.
=140	=140	=140	=140	=140
4F\]	1A	4D/]	0r	0r
4E\	.	4E/	.	.
2D\	.	2F/	.	.
2C/	1A	2E/	.	.
2D\	.	2F/	.	.
=141	=141	=141	=141	=141
2AA/	0A	2E/	0r	0r
1D	.	1F	.	.
2C/	.	2E/	.	.
=142	=142	=142	=142	=142
1D	1B-	1F	0r	0r
1D	1B-	1F	.	.
=143	=143	=143	=143	=143
1.AA	0A	1E	0r	0r
.	.	2r	.	.
2AA/	.	[2A/	.	.
=144	=144	=144	=144	=144
1AA	1r	2A/]	0r	0r
.	.	4G/	.	.
.	.	4F/	.	.
1AA	1A	2E/	.	.
.	.	[2A/	.	.
=145	=145	=145	=145	=145
[0AA	1c	4A/]	0r	0r
.	.	4B\	.	.
.	.	4c\	.	.
.	.	4d\	.	.
.	2B\	2e\	.	.
.	[2A/	2f\	.	.
=146	=146	=146	=146	=146
0AA]	2A/]	2e\	0r	0r
.	2F/	1d	.	.
.	1E	.	.	.
.	.	2c#i\	.	.
=147	=147	=147	=147	=147
1BB-	1D	1d	0r	0r
2r	2r	2r	.	.
2BB-i/	2D/	2d\	.	.
=148	=148	=148	=148	=148
1BB-i	1F	1d	0r	0r
1BB-i	1G	1d	.	.
=149	=149	=149	=149	=149
1AA	1A	1c	0r	0r
2r	2r	2r	.	.
2AA/	2A/	2c\	.	.
=150	=150	=150	=150	=150
1F	1c	1A	0r	0r
1D	1d	1B	.	.
=151	=151	=151	=151	=151
1C	1e	1c	0r	0r
2r	2r	2r	.	.
2C/	2e\	2c\	.	.
=152	=152	=152	=152	=152
2C/	2e\	2c\	0r	0r
2C/	2e\	2c\	.	.
1G	1d	1B	.	.
=153	=153	=153	=153	=153
2r	2r	2r	0r	0r
2D\	2d\	2A/	.	.
2E\	2d\	2G/	.	.
2E\	2c#i\	2G/	.	.
=154	=154	=154	=154	=154
0D	0d	1A	1f	1a
.	.	1F	1f	2a/
.	.	.	.	2a/
=155	=155	=155	=155	=155
0r	0r	1C	1e	2.g/
.	.	.	.	4a/
.	.	2r	2e\	2b\
.	.	2C/	2e\	2cc\
=156	=156	=156	=156	=156
0r	0r	2G/	1d	2b\
.	.	2F/	.	1a
.	.	1D	1d	.
.	.	.	.	4g/
.	.	.	.	4f/
=157	=157	=157	=157	=157
0r	0r	2.A/	1c	2.e/
.	.	4G/	.	4f/
.	.	2E/	1c	2g/
.	.	2F/	.	[2a/
=158	=158	=158	=158	=158
0r	0r	1D	1B	2a/]
.	.	.	.	4g/
.	.	.	.	4f/
.	.	1E	1B	1g
=159	=159	=159	=159	=159
0D	0r	1.F	1A	2.a/
.	.	.	.	4g/
.	.	.	1r	4f/
.	.	.	.	4e/
.	.	4E/	.	2f/
.	.	4D/	.	.
=160	=160	=160	=160	=160
1E	0r	1C	1c	4g/
.	.	.	.	4f/
.	.	.	.	4e/
.	.	.	.	4d/
1E	.	2r	1G	1c
.	.	2C/	.	.
=161	=161	=161	=161	=161
1D	0r	1F	1A	1d
2E\	.	2G/	1c	1r
2F\	.	2A/	.	.
=162	=162	=162	=162	=162
2E\	0r	2G/	1c	0r
1F	.	1A	.	.
.	.	.	1d	.
[2G\	.	[2B\	.	.
=163	=163	=163	=163	=163
4G\]	0r	4B\]	1d	1r
4F\	.	4A/	.	.
2D\	.	1A	.	.
1E	.	.	1c	1e
.	.	2G/	.	.
=164	=164	=164	=164	=164
1D	0r	1A	1d	1f
1AA	.	2.A/	1e	2e/
.	.	.	.	[2a/
.	.	4G/	.	.
=165	=165	=165	=165	=165
1r	0r	2F/	1d	2a/]
.	.	2D/	.	2f/
1AA	.	1A	1c	1e
=166	=166	=166	=166	=166
1BB-	0r	1F	1d	1d
1GG	.	1G	1d	2r
.	.	.	.	[2dd\
=167	=167	=167	=167	=167
1.r	0r	1F	1A	2dd\]
.	.	.	.	2cc\
.	.	1B-	1d	2dd\
[2G\	.	.	.	[2b\
=168	=168	=168	=168	=168
2G\]	0r	1G	1B	2b\]
1E	.	.	.	1g
.	.	2r	1c	.
[2F\	.	[2c\	.	[2a/
=169	=169	=169	=169	=169
2F\]	0r	2c\]	1A	2a/]
2D\	.	1d	.	2f/
1E	.	.	1G	1g
.	.	2c\	.	.
=170	=170	=170	=170	=170
1D	0r	1d	1A	2f/
.	.	.	.	1f
1r	.	1B	1G	.
.	.	.	.	2e/
=171	=171	=171	=171	=171
1D	0r	1A	1F	1f
1BB	.	2r	1G	1d
.	.	2D/	.	.
=172	=172	=172	=172	=172
1AA	0r	2E/	1A	2.c/
.	.	2F/	.	.
.	.	.	.	4d/
2.AA/	.	2E/	1c	4e/
.	.	.	.	4f/
.	.	[2A/	.	[2e/
4BB/	.	.	.	.
=173	=173	=173	=173	=173
2C/	0r	2A/]	1A	2e/]
2D\	.	4G/	.	1d
.	.	4F/	.	.
1AA	.	1E	1A	.
.	.	.	.	2c#i/
=174	=174	=174	=174	=174
[0D	[0F	0D	0A	1d
.	.	.	.	[1f
=175	=175	=175	=175	=175
0D]	0F]	1r	1r	2f/]
.	.	.	.	2g/
.	.	1D	1A	1a
=176	=176	=176	=176	=176
0r	[0F	1.A	1c	0f
.	.	.	1c	.
.	.	4B\	.	.
.	.	4c\	.	.
=177	=177	=177	=177	=177
1D	0F]	1.d	1A	1r
2BB-/	.	.	1B-i	[1f
[2D\	.	[2d\	.	.
=178	=178	=178	=178	=178
2D\]	0r	2d\]	1A	2f/]
2F\	.	4c#i\	.	2d/
.	.	4B\	.	.
1E	.	1c#i	1G	1e
=179	=179	=179	=179	=179
0D	0F	0d	1A	1f
.	.	.	1A	[1a
=180	=180	=180	=180	=180
0AA	0E	1.c	1A	2a/]
.	.	.	.	2b\
.	.	.	1A	1cc
.	.	2B\	.	.
=181	=181	=181	=181	=181
0AA	0C	1A	1c	2r
.	.	.	.	2.cc\
.	.	1F	1A	.
.	.	.	.	4b\
.	.	.	.	2a/
=182	=182	=182	=182	=182
1GG	0D	1G	1B	2d/
.	.	.	.	1g
1D	.	2.A/	1A	.
.	.	.	.	2f/
.	.	4B\	.	.
=183	=183	=183	=183	=183
1r	[0E	2c\	1G	1g
.	.	2B\	.	.
[1AA	.	1c	2r	1e
.	.	.	2A/	.
=184	=184	=184	=184	=184
2AA/]	1E]	1C	2E/	1c
2C/	.	.	1A	.
1BB	1D	1r	.	1d
.	.	.	2G#i/	.
=185	=185	=185	=185	=185
0AA	[0E	0C	1A	1c
.	.	.	2r	[1cc
.	.	.	2A/	.
=186	=186	=186	=186	=186
1AA	0E]	1C	1c	0cc_
[1AA	.	1c	1A	.
=187	=187	=187	=187	=187
2AA/]	[0A	2A/	2.c\	1cc]
2BB/	.	1c	.	.
.	.	.	4d\	.
2C/	.	.	2e\	1a
[2D\	.	[2A/	[2f\	.
=188	=188	=188	=188	=188
2D\]	0A]	2A/]	2f\]	1.a
2C/	.	2E/	1e	.
1D	.	1F	.	.
.	.	.	2d\	2b\
=189	=189	=189	=189	=189
0AA	[0A	0E	1e	2cc\
.	.	.	.	2.cc\
.	.	.	1e	.
.	.	.	.	4b\
.	.	.	.	4a/
.	.	.	.	4g/
=190	=190	=190	=190	=190
1D	0A]	1F	1d	2f/
.	.	.	.	2.a/
[1AA	.	1E	1c	.
.	.	.	.	4b\
.	.	.	.	[2cc\
=191	=191	=191	=191	=191
1AA]	0r	1F	1c	2cc\]
.	.	.	.	1a
1E	.	1G	1B	.
.	.	.	.	2g/
=192	=192	=192	=192	=192
1F	[0F	1D	1A	0a
[1A	.	1r	1c	.
=193	=193	=193	=193	=193
2A\]	0F]	1r	1c	0f
2G\	.	.	.	.
1F	.	1d	1A	.
=194	=194	=194	=194	=194
0E	0C	[0e	1G	0g
.	.	.	1G	.
=195	=195	=195	=195	=195
0AA	1.C	0e]	1c	1a
.	.	.	1c	[1cc
.	2D/	.	.	.
=196	=196	=196	=196	=196
0r	0E	0e	1c	2cc\]
.	.	.	.	2b\
.	.	.	1B	1g
=197	=197	=197	=197	=197
0r	1F	1c	1A	1a
.	1G	2B\	1B	[1g
.	.	[2e\	.	.
=198	=198	=198	=198	=198
0r	2E/	2e\]	1c	2g/]
.	1F	1c	.	1a
.	.	.	1A	.
.	[2D/	[2d\	.	[2f/
=199	=199	=199	=199	=199
0r	2D/]	2d\]	1A	2f/]
.	2F/	4c#i\	.	2d/
.	.	4B\	.	.
.	1E	1c#i	1G	2e/
.	.	.	.	2g/
=200	=200	=200	=200	=200
0r	1D	1d	1A	1.f
.	[1A	1c	1c	.
.	.	.	.	[2a/
=201	=201	=201	=201	=201
0r	2A/]	0A	1c	4a/]
.	.	.	.	4g/
.	2B\	.	.	4f#i/
.	.	.	.	4e/
.	1c	.	1A	1f#i
=202	=202	=202	=202	=202
0GG	1.d	0B	1G	0g
.	.	.	1G	.
.	2c\	.	.	.
=203	=203	=203	=203	=203
1.AA	0A	1E	1c	0r
.	.	1F	1c	.
2BB/	.	.	.	.
=204	=204	=204	=204	=204
2C/	0r	2E/	1c	0e
2D\	.	1A	.	.
1E	.	.	1B	.
.	.	2G/	.	.
=205	=205	=205	=205	=205
1AA	0r	1A	1A	1.e
1C	.	1E	2G/	.
.	.	.	[2A/	4d/
.	.	.	.	4e/
=206	=206	=206	=206	=206
1D	0r	1r	4A/]	2f/
.	.	.	4G/	.
.	.	.	2F/	1d
1E	.	2.G/	1E	.
.	.	.	.	2c/
.	.	4A/	.	.
=207	=207	=207	=207	=207
1F	0r	4B\	1D	1d
.	.	4A/	.	.
.	.	1d	.	.
1E	.	.	1G	1e
.	.	2c\	.	.
=208	=208	=208	=208	=208
1D	0A	1d	1A	1f
1AA	.	1c	1c	1e
=209	=209	=209	=209	=209
0E	[0G	0e	1B	2r
.	.	.	.	2e/
.	.	.	1G	2c/
.	.	.	.	[2e/
=210	=210	=210	=210	=210
1E	1G]	0E	1B	4e/]
.	.	.	.	4f/
.	.	.	.	2.g/
1C	1E	.	1c	.
.	.	.	.	4f/
.	.	.	.	2e/
=211	=211	=211	=211	=211
0D	0F	0r	[0A	2d/
.	.	.	.	2.f/
.	.	.	.	4e/
.	.	.	.	[2d/
=212	=212	=212	=212	=212
0AA	0E	1r	0A]	2d/]
.	.	.	.	4c#i/
.	.	.	.	4B/
.	.	1C	.	1c#i
=213	=213	=213	=213	=213
*M3/3%2	*M3/3%2	*M3/3%2	*M3/3%2	*M3/3%2
*met(O/3)	*met(O/3)	*met(O/3)	*met(O/3)	*met(O/3)
!!LO:TX:Z=8:X=-40:t=0/3 mensuration
3%2D	0D	3%4F	3%2r	3%2d
3%2r	.	.	3%2r	3%2r
3%2D	.	3%2F	3%2A	3%2d
=214	=214	=214	=214	=214
3%4GG	0r	3%4G	3%4B	3%4d
3%2GG	.	3%2G	3%2B	3%2d
=215	=215	=215	=215	=215
3%4C	3%4G	3%4E	3%4c	3%4e
3%2C	3%2G	3%2E	3%2c	3%2e
=216	=216	=216	=216	=216
3%4BB-	3%4D	3%2F	3%4d	3%2d
.	.	3%2D	.	1f
3%2BB-	3%2r	3%2E	[3%2c	.
.	.	.	.	3g/
=217	=217	=217	=217	=217
3%4AA	3%2c	3%4E	3%2c]	3%4a
.	3%2A	.	3%4e	.
3%2AA	3%2B	3%2E	.	3%2g
=218	=218	=218	=218	=218
3%2D	3%2A	3%4F	3%4d	3%4a
3%2D	3%2r	.	.	.
3%2D	3%2d	3%2F	3%2A	3%2a
=219	=219	=219	=219	=219
3%4D	3%4d	3%4F	3%2A	3%4a
.	.	.	3%2r	.
3%2D	3%2d	3%2F	3%2A	3%2a
=220	=220	=220	=220	=220
3%4AA	3%4c	3%4E	3%4e	3%4a
3%2AA	3%2A	3%2E	3%2e	3%2a
=221	=221	=221	=221	=221
3%4C	3%4G	3%4E	3%4c	3%4e
3%2C	3%2G	3%2E	3%2c	3%2e
=222	=222	=222	=222	=222
3%4BB-	3%4D	3%4F	3%2d	3%4d
.	.	.	3%2f	.
3%2BB-	3%2D	3%2D	3%2g	3%2d
=223	=223	=223	=223	=223
3%4AA	1A	1E	3%4e	1c
.	3G/	3D/	.	3B/
3%2AA	3%2F	3%2C	3%2r	3%2A
=224	=224	=224	=224	=224
3%2GG	3%2G	3%2BB	3%2r	1d
3%4AA	3%4E	3%4C	3%4A	.
.	.	.	.	3c#i/
.	.	.	.	3c#i/
.	.	.	.	3B/
=225	=225	=225	=225	=225
[0DDl	[0Dl	3%4F	3%4A	[0dl
.	.	3%2D	3%2A	.
=226	=226	=226	=226	=226
0DD_	0D_	1F	[0Al	0d_
.	.	3G/	.	.
.	.	3%2A	.	.
=227	=227	=227	=227	=227
0DD]	0D]	0Dl	0A]	0d]
==	==	==	==	==
*-	*-	*-	*-	*-
!!!RDF**kern: l=long note in original notation
!!!RDF**kern: j=tied note group as single notehead
!!!RDF**kern: i=editorial accidental
!!!ENC:	Jesse Rodin 06/05/2005
!!!END:	2012/11/11/
!!!EED:	Jesse Rodin
!!!EEV:	2014/01/03/
!!!ONB:	Translated from MusicXML and edited on 2014/01/03/ by Craig Sapp
!!muse2ps: C^@{COM}^i2I150v85,85,85,85,130Q8c110
